assets/2023/icons/editorConfig_dark.svg

<!-- Copyright 2000-2022 JetBrains s.r.o. and contributors. Use of this source code is governed by the Apache 2.0 license. -->
<svg width="16" height="16" viewBox="0 0 16 16" fill="none" xmlns="http://www.w3.org/2000/svg">
<path fill-rule="evenodd" clip-rule="evenodd" d="M1.54855 5.28862C1.5276 5.33845 1.50721 5.38857 1.48738 5.43898C1.40469 5.64924 1.43184 5.88502 1.54695 6.07944L2.44942 7.60376C2.5941 7.84811 2.5941 8.15189 2.44942 8.39625L1.54695 9.92057C1.43184 10.115 1.40469 10.3508 1.48738 10.561C1.50712 10.6112 1.52742 10.6611 1.54828 10.7107M1.54855 5.28862C1.77862 4.74151 2.07621 4.22979 2.43087 3.76389C2.46347 3.72108 2.49654 3.67865 2.53009 3.63661C2.67096 3.46012 2.8886 3.36585 3.1144 3.36832L4.88356 3.3877C4.90131 3.3879 4.91898 3.38749 4.93653 3.38648C5.19992 3.37145 5.4393 3.22346 5.56988 2.99146L6.43817 1.44875C6.43805 1.44896 6.43829 1.44854 6.43817 1.44875C6.54919 1.25193 6.74034 1.11006 6.96387 1.07676C7.01726 1.06881 7.07084 1.06146 7.12462 1.05472C7.41272 1.0186 7.70624 1 8.00408 1C8.30187 1 8.59534 1.01859 8.88339 1.0547C8.88311 1.05466 8.88367 1.05473 8.88339 1.0547C8.93688 1.06141 8.99103 1.06883 9.04414 1.07674C9.26753 1.11001 9.45823 1.25108 9.56929 1.44771C9.56948 1.44805 9.56967 1.44839 9.56986 1.44873L10.4382 2.99146C10.5774 3.23892 10.8405 3.39081 11.1245 3.3877L12.8938 3.36832C12.8936 3.36832 12.8939 3.36832 12.8938 3.36832C13.1194 3.36598 13.3373 3.46024 13.4781 3.63661C13.5113 3.67829 13.5441 3.72035 13.5765 3.7628C13.5767 3.76316 13.577 3.76353 13.5773 3.76389C13.9319 4.22975 14.2295 4.74142 14.4596 5.28848C14.4594 5.28819 14.4597 5.28876 14.4596 5.28848C14.4804 5.33802 14.501 5.38872 14.5207 5.43884C14.6034 5.64891 14.5763 5.88446 14.4615 6.07878C14.4616 6.07861 14.4614 6.07896 14.4615 6.07878L13.5586 7.60376C13.4139 7.84811 13.4139 8.15189 13.5586 8.39625L14.4612 9.92069C14.4611 9.92061 14.4612 9.92078 14.4612 9.92069C14.5761 10.1151 14.6034 10.351 14.5207 10.5612C14.5013 10.6106 14.4813 10.6598 14.4607 10.7087C14.4603 10.7097 14.4599 10.7106 14.4596 10.7115C14.2295 11.2586 13.9319 11.7703 13.5773 12.2361C13.5447 12.2789 13.5116 12.3214 13.4781 12.3634C13.3372 12.5399 13.1196 12.6342 12.8938 12.6317L11.1245 12.6123C11.1067 12.6121 11.0891 12.6125 11.0715 12.6135C10.8081 12.6285 10.5687 12.7765 10.4382 13.0085L9.56986 14.5513C9.56998 14.5511 9.56975 14.5515 9.56986 14.5513C9.45884 14.7481 9.26768 14.89 9.04414 14.9233C8.99076 14.9312 8.93717 14.9386 8.8834 14.9453C8.59534 14.9814 8.30187 15 8.00408 15C7.70624 15 7.41272 14.9814 7.12461 14.9453C7.12407 14.9452 7.12353 14.9451 7.12299 14.9451C7.06976 14.9384 7.01672 14.9311 6.96387 14.9232C6.7401 14.8899 6.54914 14.7484 6.43817 14.5512L5.56988 13.0085C5.4306 12.7611 5.16752 12.6092 4.88356 12.6123L3.1144 12.6317C2.8886 12.6342 2.67096 12.5399 2.5301 12.3634C2.49655 12.3214 2.46347 12.2789 2.43088 12.2361C2.07621 11.7702 1.77835 11.2578 1.54828 10.7107M3.22655 4.36961C3.20952 4.39198 3.19265 4.41447 3.17593 4.43709C2.89397 4.81844 2.65633 5.23403 2.47037 5.67626L3.30992 7.0943C3.6406 7.65283 3.6406 8.34718 3.30992 8.9057L2.47037 10.3237C2.48155 10.3503 2.49293 10.3769 2.50449 10.4033C2.69648 10.8419 2.93961 11.2535 3.22656 11.6304L4.87261 11.6124C5.52165 11.6053 6.12297 11.9524 6.44133 12.5181L7.24899 13.953C7.25784 13.9542 7.26669 13.9552 7.27555 13.9563C7.51399 13.9851 7.75709 14 8.00408 14C8.2602 14 8.51214 13.984 8.75904 13.9531L9.56671 12.5181C9.88507 11.9524 10.4864 11.6053 11.1354 11.6124L12.7816 11.6304C12.7986 11.608 12.8155 11.5855 12.8322 11.5629C13.1142 11.1816 13.3518 10.766 13.5377 10.3239L12.6981 8.9057C12.6568 8.83589 12.6206 8.76395 12.5896 8.69042C12.3726 8.17571 12.4088 7.58301 12.6981 7.0943L13.5377 5.67613C13.5266 5.64954 13.5152 5.62304 13.5036 5.59663C13.3117 5.15806 13.0685 4.74652 12.7816 4.36961L11.1354 4.38764C10.4864 4.39475 9.88507 4.04758 9.56671 3.48194L8.75904 2.04693C8.7502 2.04583 8.74136 2.04474 8.73251 2.04367C8.4941 2.01487 8.25104 2 8.00408 2C7.74792 2 7.49594 2.016 7.24899 2.04695L6.44133 3.48194C6.12297 4.04758 5.52165 4.39475 4.87261 4.38764L3.22655 4.36961ZM8.004 9.65101C8.91582 9.65101 9.655 8.91183 9.655 8.00001C9.655 7.08819 8.91582 6.34902 8.004 6.34902C7.09218 6.34902 6.353 7.08819 6.353 8.00001C6.353 8.91183 7.09218 9.65101 8.004 9.65101ZM10.655 8.00001C10.655 9.46412 9.46811 10.651 8.004 10.651C6.5399 10.651 5.353 9.46412 5.353 8.00001C5.353 6.53591 6.5399 5.34902 8.004 5.34902C9.46811 5.34902 10.655 6.53591 10.655 8.00001Z" fill="#CED0D6"/>
</svg>

<svg xmlns="http://www.w3.org/2000/svg" width="16" height="16" fill="none" viewBox="0 0 16 16"><path fill="#CED0D6" fill-rule="evenodd" d="m1.549 5.289-.062.15a.73.73 0 0 0 .06.64l.902 1.525a.78.78 0 0 1 0 .792l-.902 1.525a.73.73 0 0 0-.06.64l.061.15m0-5.422a7 7 0 0 1 .982-1.652.73.73 0 0 1 .584-.269l1.77.02.053-.002a.78.78 0 0 0 .633-.395l.868-1.542a.73.73 0 0 1 .526-.372 7 7 0 0 1 2.08 0 .73.73 0 0 1 .525.37v.002l.87 1.542c.138.248.402.4.685.397l1.77-.02a.73.73 0 0 1 .584.269l.1.127a7 7 0 0 1 .943 1.675.73.73 0 0 1-.06.64l-.902 1.525a.78.78 0 0 0 0 .792l.902 1.525c.115.194.142.43.06.64l-.06.148-.001.002a7 7 0 0 1-.982 1.652.73.73 0 0 1-.584.269l-1.77-.02a.78.78 0 0 0-.686.396l-.868 1.543a.73.73 0 0 1-.526.372 7 7 0 0 1-1.92.022h-.001l-.16-.022a.73.73 0 0 1-.525-.372l-.868-1.543a.78.78 0 0 0-.686-.396l-1.77.02a.73.73 0 0 1-.584-.269 7 7 0 0 1-.982-1.652M3.227 4.37a6 6 0 0 0-.757 1.306l.84 1.418c.33.559.33 1.253 0 1.812l-.84 1.418.034.08c.192.438.436.85.723 1.226l1.646-.018c.649-.007 1.25.34 1.568.906l.808 1.435.027.003a6 6 0 0 0 1.483-.003l.808-1.435c.318-.566.92-.913 1.568-.906l1.647.018.05-.067a6 6 0 0 0 .706-1.24l-.84-1.417a1.78 1.78 0 0 1 0-1.811l.84-1.419-.034-.08a6 6 0 0 0-.722-1.226l-1.647.018a1.78 1.78 0 0 1-1.568-.906l-.808-1.435-.026-.003a6 6 0 0 0-1.484.003l-.808 1.435c-.318.566-.92.913-1.568.906zm4.777 5.28a1.651 1.651 0 1 0 0-3.302 1.651 1.651 0 0 0 0 3.302M10.655 8a2.651 2.651 0 1 1-5.302 0 2.651 2.651 0 0 1 5.302 0" clip-rule="evenodd"/></svg>
